X:147
T:RVW2/2/147 The Battle of Waterloo
C:Mr. Leary, Salisbury, Wiltshire, September 1904
L:1/4
Q:1/4=110
M:3/4
I:linebreak $
K:G
"^(Editorial suggestion " D | G B B | A d B | G F G | A F (E/D/) | D E C |$ B, D (G/A/) | B E F | 
w: The|trum- pets are|soun- ding the|sig- nal for|bat- tle to the|fair ones of|Bris- tol we _|all bid a-|
G2 D | G B B | A d B |$ G F G | A F (E/D/) | D E C | B, D D | G3/2 A/ B |$ B A B | c3/2 d/ e | 
w: dieu and|hied to the|spot where the|loud can- nons|rat- tle to com-|mence the hard|con- test, (com-|mence the hard|con- test, com-|mence the hard|
d B G | A E F | !fermata!G2 |] 
w: con- test) of|famed Wa- ter-|loo.|



